X: 14221
T: John Anderson my Jo
%R: air, march + reel
B: James Oswald "The Caledonian Pocket Companion" v.1 b.4 p.22 (and top 8 staves of p.23)
S: https://ia800501.us.archive.org/18/items/caledonianpocket01rugg/caledonianpocket01rugg_bw.pdf
Z: 2020 John Chambers <jc:trillian.mit.edu>
M: C
L: 1/8
K: Gm
"_Slow"T^F>E |\
D2G2 (G^F)(GA) | B3c {Bc}d2Tc>B | A2(G=F) (FG)(F=E) | F3G (AG)(F=E) |\
D2G2 (G^F)(GA) | B3c (BA)(GF) | d2F2 (BA)(Bc) | d3e d2f2 |
(ed)(cB) B3c | (de)(fg) (fd)(cB) | {B}TA3G (FG)(AB) | c3d c2(B>c) |\
d3e {d}Tc3B | (AB)(cd) {c}B3A | BA (G/A/B) D2(G^F) | G3A G2 :|
|: (B>A) |\
G2D2 (dc)(BA) | (BA)(G^F) G(dcB) | TA2(GF) (fd)(cB) | A3B ( AB)(cd) |\
TB2(AG) D2(GA) | B3c (Bc)(de) | (fg)(fe) (dc) B/(d/c/e/) |
d2F2 D2f2 |\
(ed)(cB) f2B2 | (de)f2 F2B2 | f2d2 (FB)(dB) | c3d c2(BA) |\
(Bdfb) {d}Tc3B | (Acfa) {c}TB3A | .d(BAG) D2(G^F) | (G3A) G2 :|
|: (d/c/B/A/) |\
B2G2 D2G>A | B2d2 g2b2 | (afed) (cBAG) | F2A2 c2a2 |\
g2d2 (cB)(AG) | D2G2 B2D2 | b(ag^f) g^fga | Tf2d2 TB2f2 |
(dc)(Bc) (dc)(Bc) | d2b2 Td2(cB) | (cB)(AB) (cB)(AB) | c2a2 c2(TBA) |\
(BA)(GA) (BA)(GA) | ^F2d2 (GF)(=ED) | G2(AB) (DG)(^FA) | G3A G2 :|
|: (gf) |\
d2(G.A) TB2d2 | gGga {ga}b2(ag) | a2F2 TA2c2 | "P.23" f=efg a2(g^f) |\
g2(c>d) {c}TB3A | (BA)(G^F) (GA)(Bc) | d2(cB) cABc | {G}T^F3E D2f2 |
(ed)(cB) F2(B>c) | d2f2 (ba)(g^f) | g2(Tc>B) A2c2 | f2(f/g/)a {c}TB3A |\
(Bd)(fb) d2(TcB) | (Ac)(fa) c2(TBA) | .B(dcd) (DG^FA) | (G3A) G2 :|
%
|:[M:C|][L:1/4] "_Brisk"F |\
DG GA | B2 Bc | A>G FF | F3 F |\
DG GA | B2 Bc | dc Bc | d3 f |\
dc Bc | de fd | cB AB |
c2 Bc |\
d2 cB | A2 GF | DG G^F | G3 :: =e/^f/ |\
gG gG | g2 ab | af ff | c'2 ba |\
g(b/a/) gg | gb gf |
dc Bc | d3 (f/e/) |\
dB fB | bB (f/d/)B | FG AB | c2 Bc |\
dg fe | d2 (c/B/A/G/) | DG G^F | G3 :|


